src/svg/uf236-bed,hotel.svg

<!-- Generated by IcoMoon.io -->
<svg version="1.1" xmlns="http://www.w3.org/2000/svg" width="37" height="32" viewBox="0 0 37 32">
<path d="M4.571 18.286h30.857c0.625 0 1.143 0.518 1.143 1.143v8h-4.571v-4.571h-27.429v4.571h-4.571v-21.714c0-0.625 0.518-1.143 1.143-1.143h2.286c0.625 0 1.143 0.518 1.143 1.143v12.571zM14.857 12.571c0-2.518-2.054-4.571-4.571-4.571s-4.571 2.054-4.571 4.571 2.054 4.571 4.571 4.571 4.571-2.054 4.571-4.571zM36.571 17.143v-1.143c0-3.786-3.071-6.857-6.857-6.857h-12.571c-0.625 0-1.143 0.518-1.143 1.143v6.857h20.571z"></path>
</svg>

<svg xmlns="http://www.w3.org/2000/svg" width="37" height="32"><path d="M4.571 18.286h30.857c.625 0 1.143.518 1.143 1.143v8H32v-4.571H4.571v4.571H0V5.715c0-.625.518-1.143 1.143-1.143h2.286c.625 0 1.143.518 1.143 1.143v12.571zm10.286-5.715c0-2.518-2.054-4.571-4.571-4.571s-4.571 2.054-4.571 4.571 2.054 4.571 4.571 4.571 4.571-2.054 4.571-4.571zm21.714 4.572V16a6.858 6.858 0 0 0-6.857-6.857H17.143c-.625 0-1.143.518-1.143 1.143v6.857h20.571z"/></svg>
